!!!OTL: Die Mordeltern Es waren auch zween Bauernsoehn',
!!!ARE: Europa, Mitteleuropa, Deutschland (BRD), Baden
!!!YOR: 4, S. 310
!!    1902 gedruckt in Karlsruhe
!!!SCT: Q0085T
!!!YEM: Copyright 1995, estate of Helmut Schaffrath.
**kern
*ICvox
*Ivox
!! Mixed meters:  3/4; 2/4
*M3/4
*k[f#]
*G:
{8d
=1
8d
8g
4.g
8g
=2
8f#
8g
4.a}
{8g
=3
8f#
8g
4a
4a
=4
8b
16b
16dd
8b}
{16g
16a
8b
8b
=5
*M2/4
8.dd
16cc
8b
8dd
=6
*M3/4
4a
8g}
{16g
16a
8b
8b
=7
*M2/4
8.dd
16cc
8b
8dd
=8
4a
8g}
==
!!!AGN: Ballade, Habgier, Mord, Reue, Selbstmord
!! Verzierungen (Nachschlaege) in den letzten  Zeilen.
!!!ONB: ESAC (Essen Associative Code) Database: BALLADE
!!!AMT: irregular
!!!AIN: vox
!!!EED: Helmut Schaffrath
!!!EEV: 1.0
*-
